outputs/icons/navigation/chevron_left_round.svg

<svg width="1200" height="1200" viewBox="0 0 1200 1200" fill="none" xmlns="http://www.w3.org/2000/svg"><g clip-path="url(#clip0_225_2895)"><path d="M735.5 335.499C716 315.999 684.5 315.999 665 335.499L435.499 565C415.999 584.5 415.999 616 435.499 635.5L665 865C684.5 884.5 716 884.5 735.5 865C755 845.5 755 814 735.5 794.5L541.5 600L735.5 405.999C755 386.499 754.5 354.499 735.5 335.499Z" fill="black"/></g><defs><clipPath id="clip0_225_2895"><path width="24" fill="white" d="M0 0H1200V1200H0V0z"/></clipPath></defs></svg>

<svg xmlns="http://www.w3.org/2000/svg" width="1200" height="1200" fill="none"><g clip-path="url(#a)"><path fill="#000" d="M735.5 335.499c-19.5-19.5-51-19.5-70.5 0L435.499 565c-19.5 19.5-19.5 51 0 70.5L665 865c19.5 19.5 51 19.5 70.5 0s19.5-51 0-70.5L541.5 600l194-194.001c19.5-19.5 19-51.5 0-70.5"/></g><defs><clipPath id="a"><path fill="#fff" d="M0 0h1200v1200H0z"/></clipPath></defs></svg>
